packages/calcite-ui-icons/icons/tapestry-24.svg

<?xml version="1.0" encoding="UTF-8"?><svg id="icons" xmlns="http://www.w3.org/2000/svg" viewBox="0 0 24 24"><defs><style>.cls-1{fill:none;}</style></defs><path d="M13.14026,20.76361c-.69037.15125-1.40515.23639-2.14026.23639-5.51434,0-10-4.48615-10-10S5.48566,1,11,1c4.77612,0,8.7749,3.36749,9.76147,7.8512-.34546-.29535-.74554-.52112-1.18726-.66492-1.18591-3.60394-4.57849-6.21539-8.57422-6.21539C6.02136,1.97089,1.97089,6.0213,1.97089,11s4.05048,9.02911,9.02911,9.02911c.76477,0,1.50354-.10596,2.2132-.28577l-.07294,1.02026ZM15.25585,18.0083c.06445-1.12646.83203-2.0083,1.74609-2.0083h2.99609c.91406,0,1.68164.88184,1.74609,2.01562l.35645,4.9082.99805-.07227-.35645-4.90088c-.09473-1.6543-1.2998-2.95068-2.74414-2.95068h-2.99609c-1.44434,0-2.64941,1.29639-2.74414,2.94336l-.35645,4.92041.99805.07227.35645-4.92773ZM20.96972,11.5c0-1.37842-1.1084-2.5-2.46973-2.5-1.37891,0-2.5,1.12158-2.5,2.5s1.12109,2.5,2.5,2.5c1.36133,0,2.46973-1.12158,2.46973-2.5ZM19.96972,11.5c0,.84131-.64551,1.5-1.46973,1.5-.82715,0-1.5-.67285-1.5-1.5s.67285-1.5,1.5-1.5c.82422,0,1.46973.65869,1.46973,1.5ZM13,5h-2v2h2v-2ZM13,3.20343c-.64087-.16461-1.30853-.26147-2-.26147v1.05804h2v-.79657ZM17,5.64008v1.35992h.98535c-.28082-.4884-.61206-.94257-.98535-1.35992ZM14,14v1.81396c.47754-.76917,1.17981-1.34387,2-1.61774v-.19623h-2ZM16,5h-2v2h2v-2ZM7,8h-2v2h2v-2ZM9,6h-3v-1.30743c-.3606.28644-.6933.60461-1,.94757v1.35986h5v-3.9892c-.34082.04242-.67358.10876-1,.19263v2.79657ZM11,19h.9295c.36548-.0423.72137-.11377,1.0705-.20343v-1.79657h-2v2ZM8,10h2v-2h-2v2ZM8,13h2v-2h-2v2ZM11,16h2v-2h-2v2ZM5,16.35986c.3067.34296.6394.66113,1,.94757v-2.30743h3v3h-1.97595c.89905.51276,1.9046.85571,2.97595.9892v-4.9892h-5v2.35986ZM7,11h-2v2h2v-2ZM3.20343,13h.79657v-2h-1.05804c0,.69147.09686,1.35913.26147,2ZM3.01074,10h.98926v-2h-.47278c-.25439.63135-.42944,1.30176-.51648,2ZM15.05054,12h-3.05054v-3h3v1h.35107c.16675-.34827.38208-.66852.64893-.94171v-1.05829h-5v5h4.35107c-.14905-.3114-.24927-.64636-.30054-1Z"/><rect class="cls-1" width="24" height="24"/></svg>

<svg xmlns="http://www.w3.org/2000/svg" viewBox="0 0 24 24"><path d="M13.14 20.764A9.983 9.983 0 0 1 11 21C5.486 21 1 16.514 1 11S5.486 1 11 1c4.776 0 8.775 3.367 9.761 7.851a3.477 3.477 0 0 0-1.187-.665C18.388 4.582 14.996 1.971 11 1.971 6.021 1.97 1.97 6.02 1.97 11s4.051 9.03 9.03 9.03c.765 0 1.504-.107 2.213-.287l-.073 1.02zm2.116-2.756c.064-1.126.832-2.008 1.746-2.008h2.996c.914 0 1.682.882 1.746 2.016l.357 4.908.998-.072-.357-4.901c-.095-1.655-1.3-2.951-2.744-2.951h-2.996c-1.444 0-2.65 1.296-2.744 2.943l-.357 4.92.998.073.357-4.928zM20.97 11.5c0-1.378-1.109-2.5-2.47-2.5-1.379 0-2.5 1.122-2.5 2.5s1.121 2.5 2.5 2.5c1.361 0 2.47-1.122 2.47-2.5zm-1 0c0 .841-.646 1.5-1.47 1.5-.827 0-1.5-.673-1.5-1.5s.673-1.5 1.5-1.5c.824 0 1.47.659 1.47 1.5zM13 5h-2v2h2V5zm0-1.797a8.018 8.018 0 0 0-2-.261V4h2v-.797zm4 2.437V7h.985A8.087 8.087 0 0 0 17 5.64zM14 14v1.814c.478-.77 1.18-1.344 2-1.618V14h-2zm2-9h-2v2h2V5zM7 8H5v2h2V8zm2-2H6V4.693c-.36.286-.693.604-1 .947V7h5V3.01c-.34.043-.674.11-1 .193V6zm2 13h.93a7.992 7.992 0 0 0 1.07-.203V17h-2v2zm-3-9h2V8H8v2zm0 3h2v-2H8v2zm3 3h2v-2h-2v2zm-6 .36c.307.343.64.661 1 .947V15h3v3H7.024a7.99 7.99 0 0 0 2.976.99V14H5v2.36zM7 11H5v2h2v-2zm-3.797 2H4v-2H2.942c0 .691.097 1.36.261 2zm-.192-3H4V8h-.473a7.99 7.99 0 0 0-.516 2zm12.04 2H12V9h3v1h.351A3.51 3.51 0 0 1 16 9.058V8h-5v5h4.351a3.455 3.455 0 0 1-.3-1z"/><path fill="none" d="M0 0h24v24H0z"/></svg>
